X:14
T:Gracious Lady
C:from Edward Winder's ms2
M:C
L:1/8
K:F
F3G A2d2|c2A2A2d2|c2A2A2GF|G3F G2A2|
F3G A2d2|c2A2A2d2|c2A2BAGA|F4F4:|
|:f2f2gfed|f2f2gfed|ef g2G4|F3G A2d2|
c2F2F2d2|c2F2F2d2|c2A2BAGA|F4F4:|
%%newpage
